X: 943
T: All Bairns Dance
R: reel
M: 4/4
K: Amajor
cffe c2BA|B2BA Bcc2|cffe c2 A/B/c|B2AB cEE2|
cffe c2BA|B2BA Bcc2|agfe c2 A/B/c|BAGE E4|
|:FEFc EFCD|BA B/c/d cBA2|BA B/c/d cBAF|FEFC E4|
FEFc EFCD|BA B/c/d cBAF|EFcE C/D/C cC|C/D/C cd cBA2:|
|:fecA B2AB|[M:3/4] ~F3G Ac|[M:4/4] efAc faAc|f2ec eA B/c/e|
fecA B2AB|[M:3/4] ~F3G Ac|G3A B/c/e|a2 ge B/c/e|bg ag fe:|
[M:4/4] cffe c2BA|B2BA Bcc2|cffe c2 A/B/c|B2AB cEE2|
cffe c2BA|B2BA Bcc2|agfe c2 A/B/c|BAGE E4||

